X:257
T:B257-  John Dory
Q:1/4=120
M:6/4
L:1/4
K:C
G|A2GA2B|c2GG2E|F2ED2G|C2CC2c/2c/2|\
c2cd2d|e3e2e/2e/2|d2cc2B|c3c2E/2E/2|\
F2ED2G|C3C2|]

